X: 38292
T: St. Patrick Was A Gentleman
R: reel
M: 4/4
K: Eminor
|:(B/ A/)|GE EE B,E E(F/G/)|AF DF A2B(B/A/)|
GE EE B,E E(F/G/)|(AF) DF A2BG|Ge e^d e=d BG|
Ge e^d eB z[G/G/][G/G/]|G[e/e/] [e/e/] e^d ed e[B/B/] [B/B/]|
A[F/F/][F/F/] DF A2BB/A/|GE EE B,E EF/G/|
AF DF A2B(B/A/)|GE EE B,E Ee|eB BA (GF)E:|

